X: 59
T: REELS: Jenny's Chickens Set
T: Musical Priest
C: C: Trad.; S: Various
C: Set Leaders: Oliushka, Anton
Z: [Unedited], Oleg Naumov arr.; Jeremy / ceolachan at The Session
N: https://thesession.org/members/26966/sets/95965
R: Reel
M: 4/4
L: 1/8
Q: 1/2=100
K: Bmin
|:BA|"Bm"FBBA B2Bd|"A"cBAf ecBA|"Bm"FBBA B2Bd|"A"cBAc "Bm"B2:||
|:Bc|"D"d2dc dfed|"A"(3cBA eA fAeA|"Bm"dcBc "G"defb|"A"afec "Bm"B2:||
Bc|"Bm"dBB2 bafb|"A"afec ABce|"Bm"dB B2 bafb|"A"afec "Bm"B2Bc|
"Bm"dB B2 bafb|"A"afec ABce|"Bm"dcBc defb|"A"afec "Bm"B2||
T: Jenny's Chickens
K: Bdor
|:"B5 (D)"f2 fg fece|fefa "A (D)"eAce|"D"f2 fg "E/C#"fece|"A"fgaf "(E)"eAce:||
|:"B5"fBBA B2 ce|fB ~B2 "A"eAce|"B5"fBBA B2 ce|1 "A"fgaf "(E)"eAce:|2 "A"fgaf eAcA||
|:"B5"~B2 bB "(E)"aBgB|B2 af "A"eAcA|"B5"B2 bB "(E)"aBgB|1 "A"fgaf "(E)"eAcA:|2 "F#m"fgaf "(E)"eAce||

